src/images/linkedin-circle.svg

<svg height="35" viewBox="0 0 35 35" width="35" xmlns="http://www.w3.org/2000/svg"><g fill="none"><path d="m17.1 34.5c9.4 0 17-7.6 17-17s-7.6-17-17-17-17 7.6-17 17 7.6 17 17 17" fill="#1187c9"/><path d="m12.4 23.8h-3.4v-10.6h3.3v10.6zm-1.8-11.9c-1.2 0-2-.8-2-1.8s.8-1.8 2-1.8 2 .8 2 1.8-.7 1.8-2 1.8zm15 11.9h-3.8v-5.5c0-1.4-.6-2.4-1.9-2.4-1 0-1.5.7-1.8 1.3-.1.2-.1.5-.1.9v5.7h-3.7v-10.6h3.7v1.7c.2-.7 1.4-1.8 3.3-1.8 2.4 0 4.2 1.5 4.2 4.8v5.9z" fill="#fff"/></g></svg>

<svg width="35px" height="35px" viewBox="0 0 35 35" version="1.1" xmlns="http://www.w3.org/2000/svg" xmlns:xlink="http://www.w3.org/1999/xlink">
    <!-- Generator: Sketch 43.2 (39069) - http://www.bohemiancoding.com/sketch -->
    <desc>Created with Sketch.</desc>
    <defs></defs>
    <g id="Page-1" stroke="none" stroke-width="1" fill="none" fill-rule="evenodd">
        <g id="linkedin-circle" fill-rule="nonzero">
            <path d="M17.1,34.5 C26.5,34.5 34.1,26.9 34.1,17.5 C34.1,8.1 26.5,0.5 17.1,0.5 C7.7,0.5 0.1,8.1 0.1,17.5 C0.1,26.9 7.7,34.5 17.1,34.5" id="Shape" fill="#1187C9"></path>
            <path d="M12.4,23.8 L9,23.8 L9,13.2 L12.3,13.2 L12.3,23.8 L12.4,23.8 Z M10.6,11.9 L10.6,11.9 C9.4,11.9 8.6,11.1 8.6,10.1 C8.6,9.1 9.4,8.3 10.6,8.3 C11.8,8.3 12.6,9.1 12.6,10.1 C12.6,11.1 11.9,11.9 10.6,11.9 Z M25.6,23.8 L21.8,23.8 L21.8,18.3 C21.8,16.9 21.2,15.9 19.9,15.9 C18.9,15.9 18.4,16.6 18.1,17.2 C18,17.4 18,17.7 18,18.1 L18,23.8 L14.3,23.8 L14.3,13.2 L18,13.2 L18,14.9 C18.2,14.2 19.4,13.1 21.3,13.1 C23.7,13.1 25.5,14.6 25.5,17.9 L25.5,23.8 L25.6,23.8 Z" id="Shape" fill="#FFFFFF"></path>
        </g>
    </g>
</svg>
